public/img/events/namira.svg

<svg width="200" height="200" viewBox="0 0 200 200" fill="none" xmlns="http://www.w3.org/2000/svg">
<path d="M87.1654 13.8668C82.8199 13.558 78.4745 13.2491 74.129 12.9403C69.8671 12.6373 65.6024 12.288 61.3319 12.1004C53.5204 11.7598 45.6282 12.1841 38.2579 15.004C32.0871 17.362 26.4786 21.0622 21.741 25.66C16.7496 30.5031 12.8395 36.2872 9.97619 42.611C8.2576 46.4093 6.80142 50.323 5.35101 54.231C3.86022 58.2429 2.42711 62.2779 1.05455 66.3331C0.711405 67.3461 0.371148 68.3621 0.0337751 69.378C-0.19114 70.0534 0.763308 70.6105 1.23909 70.0794C7.57132 63.0168 15.6654 57.5762 24.5957 54.384C27.1217 53.4806 29.7111 52.759 32.3409 52.2193C32.0381 51.9884 31.7324 51.7546 31.4297 51.5237C31.5738 57.8619 30.4608 64.1684 28.1713 70.0794C27.9464 70.6624 28.7307 71.2281 29.2295 70.8933C35.2388 66.867 41.8507 63.7816 48.8087 61.7988C49.4979 61.6025 50.3197 61.259 50.7118 62.0643C51.0636 62.7916 51.1761 63.6921 51.3202 64.4801C51.6663 66.3735 51.796 68.2986 51.8479 70.2208C51.9575 74.1663 51.8854 78.1205 51.8854 82.066C51.8854 86.5657 51.8883 91.0682 51.8883 95.5679C51.8883 96.2144 52.664 96.4915 53.1196 96.0788C59.0193 90.7161 66.9836 87.7808 74.9421 87.902C79.1204 87.9655 83.5437 88.7419 87.001 91.2212C90.0922 93.4378 92.2981 96.809 93.6591 100.322C95.5622 105.234 96.0179 110.539 96.4648 115.743C96.5426 116.661 97.9873 116.669 97.9066 115.743C97.154 106.989 96.1101 97.0601 88.9792 90.9557C85.5449 88.0146 81.1619 86.8629 76.7299 86.5397C72.5574 86.2366 68.3129 86.7706 64.3307 88.0377C59.8094 89.4779 55.6167 91.8648 52.1017 95.057C52.5111 95.2273 52.9235 95.3976 53.3329 95.5679C53.3329 91.3713 53.3301 87.1747 53.3301 82.9809C53.3301 78.8276 53.3993 74.6685 53.2983 70.5181C53.2493 68.4977 53.1138 66.4774 52.7764 64.483C52.5284 63.0196 52.3035 60.5634 50.5215 60.1594C49.6218 59.9544 48.6616 60.3383 47.8081 60.5894C46.8969 60.8578 45.9915 61.1465 45.0947 61.4495C43.2954 62.0614 41.5249 62.7483 39.7804 63.5016C35.8415 65.1988 32.0669 67.2624 28.5029 69.6494C28.8547 69.9207 29.2093 70.192 29.5611 70.4633C31.8939 64.4426 33.0185 57.9774 32.8714 51.5237C32.8599 51.033 32.4216 50.7329 31.9602 50.8281C22.4532 52.785 13.4999 57.1692 6.06324 63.4064C3.98421 65.1497 2.03495 67.0402 0.224089 69.0606C0.6249 69.2943 1.02859 69.5281 1.4294 69.7619C4.06207 61.8132 6.83026 53.8702 10.0223 46.1264C11.4497 42.6629 13.076 39.2802 15.0858 36.114C16.8332 33.3605 18.8402 30.7745 21.072 28.3991C25.5213 23.6627 30.8616 19.7605 36.819 17.1427C39.8524 15.8092 43.0503 14.8481 46.3087 14.2593C50.3802 13.5233 54.5383 13.3704 58.6675 13.4569C62.8457 13.5464 67.0124 13.8783 71.1791 14.1756C75.4554 14.4787 79.7346 14.7846 84.0108 15.0877C85.0633 15.1627 86.1158 15.2378 87.1683 15.3128C88.091 15.3763 88.0881 13.9303 87.1654 13.8668Z" fill="black"/>
<path d="M86.978 13.9735C83.3995 14.9923 79.8528 16.1179 76.3435 17.3504C74.5875 17.9651 72.8429 18.6088 71.107 19.2755C69.4923 19.896 67.7708 20.4531 66.2887 21.3623C63.4426 23.1027 62.5833 26.4594 61.9259 29.5217C61.2771 32.5523 60.9801 35.6636 61.0608 38.7606C61.2223 44.9083 62.8457 51.0647 66.0666 56.3263C69.1261 61.3253 73.6272 65.3458 78.9358 67.8251C84.1579 70.264 90.0576 71.2338 95.7497 70.1716C96.4475 70.0418 97.1396 69.8772 97.823 69.6868C98.714 69.4385 98.3362 68.0445 97.4394 68.2956C92.1511 69.7733 86.508 69.2769 81.4099 67.32C76.2888 65.3545 71.7039 61.8766 68.509 57.4086C65.0949 52.629 63.1398 46.8969 62.6323 41.058C62.3757 38.1025 62.4536 35.1037 62.9005 32.1684C63.1254 30.6877 63.4369 29.2215 63.8348 27.7813C64.2125 26.4103 64.6566 24.9614 65.5735 23.8416C66.5568 22.6409 68.0101 22.0376 69.4144 21.4777C71.0984 20.8052 72.7939 20.1587 74.4952 19.5353C77.9006 18.2913 81.3465 17.1455 84.8182 16.1035C85.6631 15.8495 86.5137 15.6013 87.3615 15.3589C88.2525 15.1106 87.8748 13.7166 86.978 13.9735Z" fill="black"/>
<path d="M95.2452 68.6736C90.9516 67.3661 86.9118 64.7743 84.2993 61.0712C81.7618 57.472 80.7785 52.9522 81.8569 48.6517C82.4423 46.308 83.6274 44.152 85.4008 42.4982C85.023 42.2067 84.6453 41.9152 84.2676 41.6236C81.8973 45.1997 82.673 49.7051 84.3195 53.3909C85.9227 56.9756 88.2238 60.5113 91.5398 62.7164C93.4112 63.9603 95.6056 64.7367 97.8605 64.7714C98.789 64.7858 98.789 63.3427 97.8605 63.3282C94.1783 63.2705 91.0121 60.9875 88.812 58.1821C87.6817 56.7447 86.756 55.1342 85.9544 53.4919C85.1182 51.7861 84.4262 49.9418 84.2445 48.0369C84.0571 46.0512 84.3944 44.0279 85.5104 42.3481C85.9775 41.6438 84.9596 40.9309 84.3771 41.4736C80.9169 44.7062 79.5155 49.6849 80.1182 54.3116C80.7583 59.2211 83.6274 63.4235 87.5259 66.3704C89.7203 68.03 92.2319 69.2624 94.8588 70.0619C95.7527 70.3361 96.1333 68.9449 95.2452 68.6736Z" fill="black"/>
<path d="M112.835 15.3097C117.111 15.0067 121.39 14.7007 125.666 14.3977C129.865 14.0975 134.066 13.7569 138.27 13.5607C145.992 13.2028 153.76 13.5491 161.07 16.2853C167.14 18.5568 172.659 22.2223 177.296 26.7335C182.178 31.4872 185.972 37.1413 188.778 43.341C190.488 47.1162 191.924 51.0155 193.363 54.8976C194.828 58.8488 196.235 62.8203 197.587 66.812C197.919 67.7933 198.248 68.7775 198.573 69.7617C198.974 69.528 199.378 69.2942 199.779 69.0604C193.297 61.8303 184.995 56.3003 175.866 53.0215C173.314 52.1066 170.698 51.3734 168.043 50.8279C167.581 50.7327 167.14 51.0329 167.131 51.5235C166.984 57.9772 168.109 64.4453 170.442 70.4631C170.794 70.1918 171.148 69.9205 171.5 69.6492C168.345 67.5364 165.024 65.6748 161.566 64.0989C159.839 63.311 158.08 62.5894 156.295 61.94C154.53 61.2993 152.72 60.6412 150.886 60.2227C150.026 60.0264 149.109 60.0611 148.466 60.7393C147.901 61.3339 147.708 62.1767 147.529 62.9531C147.074 64.9186 146.86 66.939 146.759 68.9507C146.555 73.078 146.673 77.2285 146.673 81.3587C146.673 86.095 146.67 90.8343 146.67 95.5706C147.079 95.4003 147.492 95.23 147.901 95.0597C141.681 89.4056 133.293 86.2913 124.896 86.4645C120.534 86.5539 115.882 87.3881 112.272 89.977C108.933 92.3697 106.586 95.865 105.069 99.646C103.022 104.749 102.561 110.319 102.096 115.745C102.016 116.672 103.46 116.666 103.538 115.745C104.253 107.407 105.193 97.9518 111.926 92.0811C115.153 89.267 119.415 88.2251 123.599 87.9624C127.549 87.7171 131.52 88.2309 135.291 89.4315C139.571 90.7938 143.559 93.0567 146.883 96.0815C147.336 96.4942 148.115 96.2171 148.115 95.5706C148.117 87.6132 148.04 79.6529 148.129 71.6955C148.149 69.8021 148.215 67.9059 148.449 66.0269C148.567 65.0572 148.74 64.096 148.968 63.1465C149.101 62.5981 149.23 61.6139 149.94 61.5504C150.358 61.5128 150.802 61.6889 151.197 61.8044C151.638 61.9313 152.079 62.0612 152.518 62.194C153.365 62.4538 154.21 62.7308 155.049 63.0224C156.754 63.6169 158.438 64.2779 160.087 65.0081C163.812 66.6561 167.391 68.6303 170.773 70.8989C171.269 71.2308 172.059 70.6709 171.832 70.085C169.539 64.174 168.426 57.8675 168.573 51.5293C168.27 51.7602 167.965 51.994 167.662 52.2249C176.947 54.1356 185.727 58.3784 192.985 64.4857C195.038 66.2145 196.967 68.0877 198.761 70.085C199.237 70.6161 200.191 70.059 199.966 69.3836C197.293 61.3137 194.49 53.238 191.223 45.3874C189.764 41.8834 188.126 38.4604 186.079 35.2595C184.286 32.4541 182.23 29.8103 179.949 27.3829C175.442 22.586 170.009 18.5943 163.98 15.9332C160.866 14.5593 157.616 13.526 154.268 12.9084C150.136 12.1435 145.923 11.9415 141.728 12.0136C137.52 12.0858 133.322 12.4177 129.126 12.7179C124.781 13.0267 120.436 13.3355 116.09 13.6444C115.003 13.7223 113.919 13.8002 112.832 13.8753C111.915 13.9301 111.906 15.3761 112.835 15.3097Z" fill="black"/>
<path d="M112.638 15.3645C116.127 16.3574 119.585 17.4513 123.01 18.6491C124.723 19.2465 126.424 19.8699 128.12 20.5165C129.663 21.1053 131.28 21.6392 132.722 22.4531C134.048 23.2036 134.931 24.3234 135.499 25.729C136.052 27.1029 136.404 28.572 136.71 30.018C137.324 32.9273 137.584 35.906 137.497 38.8759C137.324 44.735 135.761 50.5825 132.693 55.5988C129.763 60.3842 125.461 64.1768 120.389 66.5579C115.501 68.8525 109.864 69.7819 104.535 68.763C103.872 68.636 103.215 68.4802 102.566 68.2983C101.672 68.0472 101.289 69.4413 102.182 69.6895C107.719 71.2365 113.688 70.7545 119.028 68.6966C124.469 66.5983 129.256 62.9732 132.673 58.234C136.28 53.2263 138.279 47.1854 138.815 41.0608C139.086 37.9696 138.962 34.8554 138.495 31.7873C138.264 30.2691 137.944 28.7654 137.532 27.2876C137.102 25.7521 136.56 24.2224 135.562 22.9582C134.51 21.6277 132.981 20.9032 131.447 20.2798C129.74 19.5842 128.016 18.929 126.289 18.2941C122.797 17.0097 119.267 15.8292 115.706 14.7584C114.815 14.49 113.924 14.2302 113.027 13.9733C112.128 13.7193 111.744 15.1105 112.638 15.3645Z" fill="black"/>
<path d="M105.138 70.0648C109.81 68.6419 114.109 65.8192 116.944 61.7986C119.706 57.8791 120.707 52.883 119.519 48.2159C118.87 45.6645 117.549 43.2775 115.617 41.4736C115.043 40.9368 114.014 41.6382 114.484 42.3482C116.609 45.5548 115.833 49.6129 114.322 52.8974C112.823 56.156 110.764 59.4463 107.728 61.4667C106.064 62.575 104.146 63.2937 102.134 63.3254C101.208 63.3399 101.205 64.783 102.134 64.7686C106.188 64.7022 109.758 62.3037 112.203 59.201C113.443 57.628 114.472 55.902 115.343 54.101C116.269 52.1845 116.99 50.167 117.192 48.0341C117.399 45.8203 116.97 43.4882 115.73 41.618C115.352 41.9095 114.974 42.201 114.596 42.4925C117.765 45.4509 119.008 49.9881 118.446 54.2222C117.858 58.667 115.162 62.5779 111.612 65.2188C109.544 66.7572 107.217 67.9175 104.752 68.6679C103.87 68.945 104.247 70.3361 105.138 70.0648Z" fill="black"/>
<path d="M96.4758 115.711C96.4066 122.153 96.7843 128.598 97.6062 134.988C98.4193 141.315 99.6506 147.587 101.323 153.743C102.707 158.843 104.431 163.882 106.848 168.59C109.23 173.234 112.347 177.56 116.338 180.955C120.672 184.64 125.966 187.267 131.661 187.876C132.35 187.951 133.045 187.991 133.74 188C134.403 188.011 134.639 187.223 134.25 186.767C133.224 185.573 132.197 184.378 131.17 183.183C130.354 182.233 129.608 181.191 128.708 180.32C127.733 179.376 126.594 178.859 125.259 178.663C123.884 178.461 122.491 178.484 121.107 178.371C119.313 178.227 117.523 178.08 115.729 177.936C115.34 177.904 115.008 178.291 115.008 178.657C115.008 179.073 115.34 179.347 115.729 179.379C117.257 179.503 118.789 179.627 120.317 179.751C121.672 179.861 123.036 179.875 124.388 179.999C125.556 180.106 126.646 180.383 127.529 181.191C128.405 181.991 129.1 182.981 129.87 183.875C130.989 185.177 132.11 186.482 133.229 187.783C133.399 187.374 133.57 186.961 133.74 186.551C128.195 186.464 122.886 184.219 118.523 180.871C114.466 177.757 111.274 173.664 108.812 169.205C106.32 164.691 104.555 159.816 103.137 154.871C101.444 148.966 100.181 142.934 99.3046 136.856C98.4078 130.636 97.9493 124.349 97.9118 118.069C97.906 117.281 97.9089 116.493 97.9176 115.705C97.9262 114.781 96.4845 114.781 96.4758 115.711Z" fill="black"/>
</svg>

<svg xmlns="http://www.w3.org/2000/svg" width="200" height="200" fill="none"><path fill="#000" d="M87.165 13.867 74.13 12.94c-4.262-.303-8.527-.652-12.797-.84-7.812-.34-15.704.084-23.074 2.904-6.17 2.358-11.78 6.058-16.517 10.656-4.991 4.843-8.901 10.627-11.765 16.951-1.718 3.798-3.175 7.712-4.625 11.62A437 437 0 0 0 .034 69.378c-.225.675.73 1.233 1.205.701a57.5 57.5 0 0 1 23.357-15.695 57 57 0 0 1 7.745-2.165l-.911-.695a48.35 48.35 0 0 1-3.259 18.555c-.225.583.56 1.15 1.059.814A69.4 69.4 0 0 1 48.809 61.8c.689-.197 1.51-.54 1.903.265.352.728.464 1.628.608 2.416.346 1.894.476 3.819.528 5.74.11 3.946.037 7.9.037 11.846l.003 13.502c0 .646.776.924 1.232.51 5.9-5.362 13.864-8.297 21.822-8.176 4.178.064 8.602.84 12.059 3.32 3.091 2.216 5.297 5.587 6.658 9.1 1.903 4.912 2.359 10.217 2.806 15.421.078.918 1.522.926 1.442 0-.753-8.754-1.797-18.683-8.928-24.787-3.434-2.941-7.817-4.093-12.25-4.416-4.172-.303-8.416.23-12.398 1.498-4.522 1.44-8.714 3.827-12.23 7.019l1.232.51q-.002-6.294-.003-12.586c0-4.153.07-8.312-.032-12.463-.049-2.02-.184-4.04-.522-6.035-.248-1.463-.473-3.92-2.254-4.324-.9-.205-1.86.18-2.714.43q-1.367.405-2.713.86c-1.8.612-3.57 1.3-5.315 2.053a70 70 0 0 0-11.277 6.147l1.058.814a49.4 49.4 0 0 0 3.31-18.94c-.011-.49-.45-.79-.91-.695C22.452 52.785 13.5 57.17 6.062 63.406a57 57 0 0 0-5.839 5.655l1.205.7c2.633-7.948 5.401-15.89 8.593-23.635 1.428-3.463 3.054-6.846 5.064-10.012a52 52 0 0 1 5.986-7.715c4.45-4.736 9.79-8.638 15.747-11.256a42.3 42.3 0 0 1 9.49-2.884c4.071-.736 8.23-.889 12.359-.802 4.178.09 8.344.421 12.511.719l12.832.912 3.157.225c.923.063.92-1.383-.003-1.446"/><path fill="#000" d="M86.978 13.974a186.148 186.148 0 0 0-15.871 5.302c-1.615.62-3.336 1.177-4.818 2.086-2.846 1.74-3.706 5.097-4.363 8.16a39.3 39.3 0 0 0-.865 9.239c.161 6.147 1.785 12.304 5.006 17.565a30.03 30.03 0 0 0 12.869 11.5c5.222 2.438 11.122 3.408 16.814 2.346.698-.13 1.39-.295 2.073-.485.891-.248.513-1.642-.384-1.391-5.288 1.477-10.931.98-16.03-.976-5.12-1.965-9.705-5.443-12.9-9.911-3.414-4.78-5.37-10.512-5.877-16.351a37.6 37.6 0 0 1 .269-8.89c.224-1.48.536-2.947.934-4.387.378-1.37.822-2.82 1.738-3.94.984-1.2 2.437-1.803 3.841-2.363q2.528-1.009 5.081-1.943a186 186 0 0 1 12.867-4.176c.89-.248.513-1.642-.384-1.386"/><path fill="#000" d="M95.245 68.674c-4.293-1.308-8.333-3.9-10.946-7.603-2.537-3.599-3.52-8.119-2.442-12.42.585-2.343 1.77-4.499 3.544-6.153l-1.133-.874c-2.37 3.576-1.595 8.081.052 11.767 1.603 3.585 3.904 7.12 7.22 9.325 1.871 1.244 4.066 2.02 6.32 2.055.929.015.929-1.428 0-1.443-3.682-.058-6.848-2.34-9.048-5.146-1.13-1.437-2.056-3.048-2.858-4.69-.836-1.706-1.528-3.55-1.71-5.455-.187-1.986.15-4.01 1.266-5.689.468-.704-.55-1.417-1.133-.874-3.46 3.232-4.861 8.21-4.259 12.838.64 4.91 3.51 9.112 7.408 12.058 2.194 1.66 4.706 2.892 7.333 3.692.894.274 1.274-1.117.386-1.388M112.835 15.31c4.276-.303 8.555-.61 12.831-.912 4.199-.3 8.4-.641 12.604-.837 7.722-.358 15.49-.012 22.8 2.724 6.07 2.272 11.589 5.937 16.226 10.449 4.882 4.753 8.676 10.407 11.482 16.607 1.71 3.775 3.146 7.675 4.585 11.557a444 444 0 0 1 5.21 14.864l1.206-.702c-6.482-7.23-14.784-12.76-23.913-16.038a57.5 57.5 0 0 0-7.823-2.194c-.462-.095-.903.205-.912.695a49.4 49.4 0 0 0 3.311 18.94l1.058-.814a70 70 0 0 0-9.934-5.55 72 72 0 0 0-5.271-2.159c-1.765-.64-3.575-1.299-5.409-1.717-.86-.197-1.777-.162-2.42.516-.565.595-.758 1.438-.937 2.214-.455 1.966-.669 3.986-.77 5.998-.204 4.127-.086 8.278-.086 12.408l-.003 14.212 1.231-.511c-6.22-5.654-14.608-8.769-23.005-8.596-4.362.09-9.014.924-12.624 3.513-3.339 2.393-5.686 5.888-7.203 9.669-2.047 5.103-2.508 10.673-2.973 16.099-.08.927 1.364.921 1.442 0 .715-8.338 1.655-17.793 8.388-23.664 3.227-2.814 7.489-3.856 11.673-4.119 3.95-.245 7.921.269 11.692 1.47 4.28 1.362 8.268 3.625 11.592 6.65.453.412 1.232.135 1.232-.511.002-7.958-.075-15.918.014-23.876.02-1.893.086-3.79.32-5.668q.177-1.456.519-2.88c.133-.549.262-1.533.972-1.597.418-.037.862.139 1.257.254q.662.19 1.321.39 1.272.39 2.531.828a67 67 0 0 1 5.038 1.986 70 70 0 0 1 10.686 5.89c.496.333 1.286-.227 1.059-.813a48.2 48.2 0 0 1-3.259-18.556l-.911.696a57.5 57.5 0 0 1 25.323 12.26 58 58 0 0 1 5.776 5.6c.476.531 1.43-.026 1.205-.701-2.673-8.07-5.476-16.146-8.743-23.997-1.459-3.504-3.097-6.927-5.144-10.127a54 54 0 0 0-6.13-7.877c-4.507-4.797-9.94-8.789-15.969-11.45-3.114-1.374-6.364-2.407-9.712-3.025-4.132-.764-8.345-.966-12.54-.894-4.208.072-8.406.404-12.602.704l-13.036.926q-1.629.118-3.258.231c-.917.055-.926 1.501.003 1.435"/><path fill="#000" d="M112.638 15.365q5.234 1.488 10.372 3.284a190 190 0 0 1 5.11 1.867c1.543.59 3.16 1.123 4.602 1.937 1.326.75 2.209 1.87 2.777 3.276.553 1.374.905 2.843 1.211 4.289.614 2.91.874 5.888.787 8.858-.173 5.859-1.736 11.707-4.804 16.723-2.93 4.785-7.232 8.578-12.304 10.959-4.888 2.294-10.525 3.224-15.854 2.205a24 24 0 0 1-1.969-.465c-.894-.25-1.277 1.143-.384 1.391 5.537 1.548 11.506 1.066 16.846-.992 5.441-2.099 10.228-5.724 13.645-10.463 3.607-5.008 5.606-11.049 6.142-17.173a39 39 0 0 0-.32-9.274 38 38 0 0 0-.963-4.5c-.43-1.535-.972-3.065-1.97-4.329-1.052-1.33-2.581-2.055-4.115-2.678a160 160 0 0 0-5.158-1.986 185 185 0 0 0-13.262-4.32c-.899-.255-1.283 1.136-.389 1.39"/><path fill="#000" d="M105.138 70.065c4.672-1.423 8.971-4.246 11.806-8.266 2.762-3.92 3.763-8.916 2.575-13.583-.649-2.552-1.97-4.938-3.902-6.742-.574-.537-1.603.164-1.133.874 2.125 3.207 1.349 7.265-.162 10.55-1.499 3.258-3.558 6.548-6.594 8.569-1.664 1.108-3.582 1.827-5.594 1.858-.926.015-.929 1.458 0 1.444 4.054-.067 7.624-2.465 10.069-5.568 1.24-1.573 2.269-3.299 3.14-5.1.926-1.916 1.647-3.934 1.849-6.067.207-2.214-.222-4.546-1.462-6.416l-1.134.874c3.169 2.959 4.412 7.496 3.85 11.73-.588 4.445-3.284 8.356-6.834 10.997a22.4 22.4 0 0 1-6.86 3.449c-.882.277-.505 1.668.386 1.397M96.476 115.711c-.07 6.442.308 12.887 1.13 19.277a139 139 0 0 0 3.717 18.755c1.384 5.1 3.108 10.139 5.525 14.847 2.382 4.644 5.499 8.97 9.49 12.365 4.334 3.685 9.628 6.312 15.323 6.921a22 22 0 0 0 2.079.124c.663.011.899-.777.51-1.233l-3.08-3.584c-.816-.95-1.562-1.992-2.462-2.863-.975-.944-2.114-1.461-3.449-1.657-1.375-.202-2.768-.179-4.152-.292q-2.689-.218-5.378-.435c-.389-.032-.721.355-.721.721 0 .416.332.69.721.722l4.588.372c1.355.11 2.719.124 4.071.248 1.168.107 2.258.384 3.141 1.192.876.8 1.571 1.79 2.341 2.684l3.359 3.908.511-1.232c-5.545-.087-10.854-2.332-15.217-5.68-4.057-3.114-7.249-7.207-9.711-11.666-2.492-4.514-4.257-9.389-5.675-14.334-1.693-5.905-2.956-11.937-3.832-18.015a137.5 137.5 0 0 1-1.387-21.151c.008-.924-1.434-.924-1.442.006"/></svg>
